main/svg/bigDotsTop.svg

<svg xmlns="http://www.w3.org/2000/svg" width="32" height="32"><path d="M2 9a7.001 7.001 0 0 0 14 0A7.001 7.001 0 0 0 2 9ZM0 2.004A2.006 2.006 0 0 0 2.004 0H0ZM29.996 9c0 1.105.899 2 2.004 2V6.996A2.003 2.003 0 0 0 29.996 9Zm-7-6.996C24.106 2.004 25 1.105 25 0h-4c0 1.105.895 2.004 2 2.004Zm0 0" style="stroke:none;fill-rule:nonzero;fill:#000;fill-opacity:1"/><path d="M16 9.004a6.998 6.998 0 1 1 13.996 0 6.998 6.998 0 0 1-7 6.996A6.997 6.997 0 0 1 16 9.004ZM32 2c-1.105 0-2-.895-2.004-2H32ZM2.004 9.004C2.004 7.894 1.105 7 0 7v4a2.002 2.002 0 0 0 2.004-2ZM9 2c1.102 0 2-.895 2-2H6.996c0 1.105.895 2.004 2.004 2.004Zm0 0" style="stroke:none;fill-rule:nonzero;fill:#000;fill-opacity:1"/></svg>

<svg xmlns="http://www.w3.org/2000/svg" width="32" height="32"><path d="M2 9a7 7 0 0 0 14 0A7 7 0 0 0 2 9ZM0 2a2 2 0 0 0 2-2H0Zm30 7c0 1.105.899 2 2 2V7a2 2 0 0 0-2 2Zm-7-7c1.106 0 2-.895 2-2h-4a2 2 0 0 0 2 2Zm0 0" style="stroke:none;fill-rule:nonzero;fill:#000;fill-opacity:1"/><path d="M16 9a7 7 0 1 1 14 0 7 7 0 0 1-7 7 7 7 0 0 1-7-7Zm16-7a2 2 0 0 1-2-2h2ZM2 9c0-1.106-.895-2-2-2v4a2 2 0 0 0 2-2Zm7-7c1.102 0 2-.895 2-2H7a2 2 0 0 0 2 2Zm0 0" style="stroke:none;fill-rule:nonzero;fill:#000;fill-opacity:1"/></svg>
